apps/frontend/src/icons/file_document.svg

<svg width="24" height="24" viewBox="0 0 24 24" fill="none" xmlns="http://www.w3.org/2000/svg">
<path d="M17.1511 21.0938H6.4219C5.79916 21.093 5.20214 20.8453 4.7618 20.4049C4.32145 19.9646 4.07374 19.3676 4.073 18.7448V4.59891C4.07374 3.97617 4.32145 3.37914 4.7618 2.9388C5.20214 2.49846 5.79916 2.25074 6.4219 2.25H13.4578C13.5502 2.24996 13.6416 2.26811 13.727 2.30342C13.8123 2.33873 13.8899 2.3905 13.9552 2.45578L19.2942 7.79391C19.3595 7.85923 19.4113 7.93677 19.4466 8.02211C19.4819 8.10744 19.5001 8.1989 19.5 8.29125V18.7444C19.4994 19.3672 19.2518 19.9643 18.8114 20.4048C18.371 20.8452 17.7739 21.093 17.1511 21.0938ZM6.4219 3.65625C6.17197 3.6565 5.93235 3.75589 5.75562 3.93262C5.57889 4.10935 5.4795 4.34897 5.47925 4.59891V18.7448C5.4795 18.9948 5.57889 19.2344 5.75562 19.4111C5.93235 19.5879 6.17197 19.6873 6.4219 19.6875H17.1511C17.4011 19.6873 17.6407 19.5879 17.8174 19.4111C17.9941 19.2344 18.0935 18.9948 18.0938 18.7448V8.58234L13.1677 3.65625H6.4219Z" fill="#DBE2E6"/>
<path d="M18.7969 8.99438H15.1045C14.4818 8.99363 13.8848 8.74592 13.4444 8.30557C13.0041 7.86523 12.7564 7.26821 12.7556 6.64547V2.95312C12.7556 2.76664 12.8297 2.5878 12.9616 2.45594C13.0934 2.32408 13.2723 2.25 13.4587 2.25C13.6452 2.25 13.8241 2.32408 13.9559 2.45594C14.0878 2.5878 14.1619 2.76664 14.1619 2.95312V6.64547C14.1621 6.8954 14.2615 7.13502 14.4382 7.31175C14.615 7.48848 14.8546 7.58788 15.1045 7.58813H18.7969C18.9833 7.58813 19.1622 7.6622 19.294 7.79407C19.4259 7.92593 19.5 8.10477 19.5 8.29125C19.5 8.47773 19.4259 8.65657 19.294 8.78843C19.1622 8.9203 18.9833 8.99438 18.7969 8.99438Z" fill="#DBE2E6"/>
<path d="M15.5371 11.5312H8.03711C7.85063 11.5312 7.67179 11.4572 7.53992 11.3253C7.40806 11.1934 7.33398 11.0146 7.33398 10.8281C7.33398 10.6416 7.40806 10.4628 7.53992 10.3309C7.67179 10.1991 7.85063 10.125 8.03711 10.125H15.5371C15.6294 10.125 15.7209 10.1432 15.8062 10.1785C15.8915 10.2139 15.969 10.2656 16.0343 10.3309C16.0996 10.3962 16.1514 10.4737 16.1867 10.5591C16.222 10.6444 16.2402 10.7358 16.2402 10.8281C16.2402 10.9205 16.222 11.0119 16.1867 11.0972C16.1514 11.1825 16.0996 11.26 16.0343 11.3253C15.969 11.3906 15.8915 11.4424 15.8062 11.4777C15.7209 11.5131 15.6294 11.5312 15.5371 11.5312Z" fill="#DBE2E6"/>
<path d="M15.5371 14.4375H8.03711C7.85063 14.4375 7.67179 14.3634 7.53992 14.2316C7.40806 14.0997 7.33398 13.9209 7.33398 13.7344C7.33398 13.5479 7.40806 13.3691 7.53992 13.2372C7.67179 13.1053 7.85063 13.0312 8.03711 13.0312H15.5371C15.7236 13.0312 15.9024 13.1053 16.0343 13.2372C16.1662 13.3691 16.2402 13.5479 16.2402 13.7344C16.2402 13.9209 16.1662 14.0997 16.0343 14.2316C15.9024 14.3634 15.7236 14.4375 15.5371 14.4375Z" fill="#DBE2E6"/>
<path d="M15.5371 17.3438H8.03711C7.85063 17.3438 7.67179 17.2697 7.53992 17.1378C7.40806 17.0059 7.33398 16.8271 7.33398 16.6406C7.33398 16.4541 7.40806 16.2753 7.53992 16.1434C7.67179 16.0116 7.85063 15.9375 8.03711 15.9375H15.5371C15.7236 15.9375 15.9024 16.0116 16.0343 16.1434C16.1662 16.2753 16.2402 16.4541 16.2402 16.6406C16.2402 16.8271 16.1662 17.0059 16.0343 17.1378C15.9024 17.2697 15.7236 17.3438 15.5371 17.3438Z" fill="#DBE2E6"/>
</svg>

<svg xmlns="http://www.w3.org/2000/svg" width="24" height="24" fill="none"><path fill="#DBE2E6" d="M17.151 21.094H6.421a2.35 2.35 0 0 1-2.348-2.35V4.6A2.35 2.35 0 0 1 6.422 2.25h7.036a.7.7 0 0 1 .497.206l5.34 5.338a.7.7 0 0 1 .205.497v10.453a2.35 2.35 0 0 1-2.349 2.35M6.421 3.656a.944.944 0 0 0-.942.943v14.146a.943.943 0 0 0 .943.942h10.73a.943.943 0 0 0 .942-.942V8.582l-4.926-4.926z"/><path fill="#DBE2E6" d="M18.797 8.994h-3.693a2.35 2.35 0 0 1-2.348-2.349V2.953a.703.703 0 0 1 1.406 0v3.692a.943.943 0 0 0 .942.943h3.693a.703.703 0 0 1 0 1.406M15.537 11.531h-7.5a.703.703 0 1 1 0-1.406h7.5a.704.704 0 0 1 0 1.406M15.537 14.438h-7.5a.703.703 0 0 1 0-1.407h7.5a.703.703 0 0 1 0 1.406M15.537 17.344h-7.5a.703.703 0 0 1 0-1.407h7.5a.703.703 0 0 1 0 1.407"/></svg>
